X: 37551
T: Slow Road To East China
R: reel
M: 4/4
K: Dmajor
dB|:A~F3 G2BG|ABde ~f3e|d~B3 AFEF|DEFD E2dB|
A~F3 G2BG|ABde ~f3g|af (3gfe dBAF|1 DEFD G2dB:|2 DEFD G2AB||
|:d2fd gdfd|~g3f edBA|B2dB AFEF|DEFD E2AB|
d2fd gdfd|~g3f edef|~g3a fedA|1 BdAB d2AB:|2 BdAB d4||

